svg/u1f623.svg

<svg viewBox="0 0 128 128" xmlns="http://www.w3.org/2000/svg">
  <g id="gold">
    <radialGradient id="face_1_" cx="63.6" cy="1104.9" gradientTransform="matrix(1 0 0 1 0 -1042)" gradientUnits="userSpaceOnUse" r="56.9597">
      <stop offset="0.5" stop-color="#FDE030"/>
      <stop offset="0.92" stop-color="#F7C02B"/>
      <stop offset="1" stop-color="#F4A223"/>
    </radialGradient>
    <path id="face" d="M63.6,118.8c-27.9,0-58-17.5-58-55.9S35.7,7,63.6,7c15.5,0,29.8,5.1,40.4,14.4 c11.5,10.2,17.6,24.6,17.6,41.5s-6.1,31.2-17.6,41.4C93.4,113.6,79,118.8,63.6,118.8z" fill="url(#face_1_)"/>
    <path d="M111.49,29.67c5.33,8.6,8.11,18.84,8.11,30.23c0,16.9-6.1,31.2-17.6,41.4 c-10.6,9.3-25,14.5-40.4,14.5c-18.06,0-37-7.35-48.18-22.94c10.76,17.66,31,25.94,50.18,25.94c15.4,0,29.8-5.2,40.4-14.5 c11.5-10.2,17.6-24.5,17.6-41.4C121.6,50.16,118.13,38.84,111.49,29.67z" fill="#EB8F00"/>
  </g>
  <g id="facial_expressions">
    <g id="persevering-face">
      <g id="eyes">
        <g id="peepers">
          <path d="M57.38,66.41L57.38,66.41l-0.2-0.14l-0.1-0.08c-3.61-2.59-12.5-9.75-16.2-12.28 c-1.58-1.16-3.76-1.04-5.2,0.3c-1.54,1.59-1.49,4.12,0.09,5.66c0.13,0.12,0.26,0.24,0.41,0.34c0.1,0.1,0.2,0.1,0.3,0.2 l10.89,4.81c-0.82,0-1.63,0-2.39,0.09l-3.5,0.3c-1.2,0.2-2.5,0.4-3.8,0.6s-2.8,0.6-4.3,1c-1.24,0.35-2.38,1-3.3,1.9 c-0.87,0.78-1.43,1.84-1.6,3c-0.12,1.11,0.13,2.24,0.7,3.2c0.48,0.86,1.27,1.5,2.2,1.8c0.93,0.3,1.92,0.4,2.9,0.3 c1.07-0.14,2.09-0.52,3-1.1c1.3-0.7,2.6-1.4,3.8-1.9c1.14-0.54,2.32-1.01,3.52-1.41c1.12-0.39,2.25-0.73,3.4-1 c1.22-0.3,2.45-0.53,3.7-0.7c1.3-0.2,2.8-0.3,4.4-0.4c1.15-0.23,1.98-1.23,2-2.4C58.19,67.73,57.93,66.96,57.38,66.41z" fill="#422B0D"/>
          <path d="M99.5,72.1c-0.17-1.16-0.73-2.22-1.6-3c-0.92-0.9-2.06-1.55-3.3-1.9c-1.5-0.4-2.9-0.7-4.3-1 s-2.6-0.4-3.8-0.6L83,65.3c-0.79-0.07-1.63-0.09-2.48-0.09L91.4,60.4c0.1-0.1,0.2-0.1,0.3-0.2c1.78-1.31,2.16-3.82,0.84-5.59 c-0.11-0.14-0.22-0.28-0.34-0.41c-1.44-1.34-3.62-1.46-5.2-0.3c-3.6,2.53-12.49,9.69-16.1,12.28l-0.1,0.08l-0.2,0.14l0,0 c-0.55,0.55-0.81,1.32-0.72,2.09c0.02,1.17,0.85,2.17,2,2.4c1.6,0.1,3.1,0.2,4.4,0.4C77.53,71.46,78.77,71.7,80,72 c1.15,0.27,2.28,0.61,3.4,1c1.19,0.4,2.36,0.86,3.5,1.4c1.2,0.5,2.5,1.2,3.8,1.9c0.9,0.6,1.93,0.97,3,1.1 c0.98,0.1,1.97,0,2.9-0.3c0.93-0.3,1.72-0.94,2.2-1.8C99.37,74.34,99.62,73.21,99.5,72.1z" fill="#422B0D"/>
        </g>
      </g>
    </g>
    <path id="mouth" d="M64,83.2c10.8,0,17.8,7.9,19.7,11.6c0.7,1.4,0.7,2.6,0.1,3.1c-0.64,0.4-1.46,0.4-2.1,0 c-0.32-0.13-0.62-0.3-0.9-0.5c-4.9-3.52-10.77-5.44-16.8-5.5c-6.01,0.08-11.87,1.96-16.8,5.4c-0.28,0.2-0.58,0.37-0.9,0.5 c-0.64,0.4-1.46,0.4-2.1,0c-0.6-0.6-0.6-1.7,0.1-3.1C46.2,91.1,53.2,83.2,64,83.2z" fill="#422B0D"/>
    <g id="eyebrows">
      <path d="M27.4,42.8c-2.2,0.4-2.3,3.6,0.1,3.7c5.3,0.07,10.42-1.9,14.3-5.5c1.48-1.28,2.73-2.8,3.7-4.5 c0.58-0.83,0.38-1.97-0.45-2.55s-1.97-0.38-2.55,0.45l-0.1,0.1C38.48,38.88,33.19,41.81,27.4,42.8z" fill="#422B0D"/>
      <path d="M84.5,34.4c-0.58-0.83-1.72-1.03-2.55-0.45c-0.83,0.58-1.03,1.72-0.45,2.55 c0.97,1.7,2.22,3.22,3.7,4.5c3.9,3.57,9.01,5.54,14.3,5.5c2.5-0.1,2.3-3.3,0.1-3.7C93.74,41.84,88.41,38.87,84.5,34.4L84.5,34.4" fill="#422B0D"/>
    </g>
  </g>
</svg>

<svg viewBox="0 0 128 128" xmlns="http://www.w3.org/2000/svg">
  <defs>
    <radialGradient id="face_1_" cx="63.6" cy="62.9" gradientUnits="userSpaceOnUse" r="56.9597">
      <stop offset="0.5" stop-color="#FDE030"/>
      <stop offset="0.92" stop-color="#F7C02B"/>
      <stop offset="1" stop-color="#F4A223"/>
    </radialGradient>
  </defs>
  <path id="face" d="M63.6,118.8 C35.7,118.8 5.6,101.3 5.6,62.9 C5.6,24.5 35.7,7 63.6,7 C79.1,7 93.4,12.1 104,21.4 C115.5,31.6 121.6,46 121.6,62.9 C121.6,79.8 115.5,94.1 104,104.3 C93.4,113.6 79,118.8 63.6,118.8 Z" fill="url(#face_1_)"/>
  <path d="M111.49,29.67 C116.82,38.27 119.6,48.51 119.6,59.9 C119.6,76.8 113.5,91.1 102,101.3 C91.4,110.6 77,115.8 61.6,115.8 C43.54,115.8 24.6,108.45 13.42,92.86 C24.18,110.52 44.42,118.8 63.6,118.8 C79,118.8 93.4,113.6 104,104.3 C115.5,94.1 121.6,79.8 121.6,62.9 C121.6,50.16 118.13,38.84 111.49,29.67 Z" fill="#EB8F00"/>
  <path d="M57.38,66.41 L57.38,66.41 L57.18,66.27 L57.08,66.19 C53.47,63.6 44.58,56.44 40.88,53.91 C39.3,52.75 37.12,52.87 35.68,54.21 C34.14,55.8 34.19,58.33 35.77,59.87 C35.9,59.99 36.03,60.11 36.18,60.21 C36.28,60.31 36.38,60.31 36.48,60.41 L47.37,65.22 C46.55,65.22 45.74,65.22 44.98,65.31 L41.48,65.61 C40.28,65.81 38.98,66.01 37.68,66.21 C36.38,66.41 34.88,66.81 33.38,67.21 C32.14,67.56 31,68.21 30.08,69.11 C29.21,69.89 28.65,70.95 28.48,72.11 C28.36,73.22 28.61,74.35 29.18,75.31 C29.66,76.17 30.45,76.81 31.38,77.11 C32.31,77.41 33.3,77.51 34.28,77.41 C35.35,77.27 36.37,76.89 37.28,76.31 C38.58,75.61 39.88,74.91 41.08,74.41 C42.22,73.87 43.4,73.4 44.6,73 C45.72,72.61 46.85,72.27 48,72 C49.22,71.7 50.45,71.47 51.7,71.3 C53,71.1 54.5,71 56.1,70.9 C57.25,70.67 58.08,69.67 58.1,68.5 C58.19,67.73 57.93,66.96 57.38,66.41 Z" fill="#422B0D"/>
  <path d="M99.5,72.1 C99.33,70.94 98.77,69.88 97.9,69.1 C96.98,68.2 95.84,67.55 94.6,67.2 C93.1,66.8 91.7,66.5 90.3,66.2 C88.9,65.9 87.7,65.8 86.5,65.6 L83,65.3 C82.21,65.23 81.37,65.21 80.52,65.21 L91.4,60.4 C91.5,60.3 91.6,60.3 91.7,60.2 C93.48,58.89 93.86,56.38 92.54,54.61 C92.43,54.47 92.32,54.33 92.2,54.2 C90.76,52.86 88.58,52.74 87,53.9 C83.4,56.43 74.51,63.59 70.9,66.18 L70.8,66.26 L70.6,66.4 L70.6,66.4 C70.05,66.95 69.79,67.72 69.88,68.49 C69.9,69.66 70.73,70.66 71.88,70.89 C73.48,70.99 74.98,71.09 76.28,71.29 C77.53,71.46 78.77,71.7 80,72 C81.15,72.27 82.28,72.61 83.4,73 C84.59,73.4 85.76,73.86 86.9,74.4 C88.1,74.9 89.4,75.6 90.7,76.3 C91.6,76.9 92.63,77.27 93.7,77.4 C94.68,77.5 95.67,77.4 96.6,77.1 C97.53,76.8 98.32,76.16 98.8,75.3 C99.37,74.34 99.62,73.21 99.5,72.1 Z" fill="#422B0D"/>
  <path id="mouth" d="M64,83.2 C74.8,83.2 81.8,91.1 83.7,94.8 C84.4,96.2 84.4,97.4 83.8,97.9 C83.16,98.3 82.34,98.3 81.7,97.9 C81.38,97.77 81.08,97.6 80.8,97.4 C75.9,93.88 70.03,91.96 64,91.9 C57.99,91.98 52.13,93.86 47.2,97.3 C46.92,97.5 46.62,97.67 46.3,97.8 C45.66,98.2 44.84,98.2 44.2,97.8 C43.6,97.2 43.6,96.1 44.3,94.7 C46.2,91.1 53.2,83.2 64,83.2 Z" fill="#422B0D"/>
  <path d="M27.4,42.8 C25.2,43.2 25.1,46.4 27.5,46.5 C32.8,46.57 37.92,44.6 41.8,41 C43.28,39.72 44.53,38.2 45.5,36.5 C46.08,35.67 45.88,34.53 45.05,33.95 C44.22,33.37 43.08,33.57 42.5,34.4 L42.4,34.5 C38.48,38.88 33.19,41.81 27.4,42.8 Z" fill="#422B0D"/>
  <path d="M84.5,34.4 C83.92,33.57 82.78,33.37 81.95,33.95 C81.12,34.53 80.92,35.67 81.5,36.5 C82.47,38.2 83.72,39.72 85.2,41 C89.1,44.57 94.21,46.54 99.5,46.5 C102,46.4 101.8,43.2 99.6,42.8 C93.74,41.84 88.41,38.87 84.5,34.4 L84.5,34.4" fill="#422B0D"/>
</svg>
